src/fileIcons/FileIconZip/FileIconZip_size_s.svg

<svg viewBox="0 0 21 28" xmlns="http://www.w3.org/2000/svg">
  <path
    d="M19.6 0H1.4C0.626801 0 0 0.626801 0 1.4V26.6C0 27.3732 0.626801 28 1.4 28H19.6C20.3732 28 21 27.3732 21 26.6V1.4C21 0.626801 20.3732 0 19.6 0Z"
  />
  <path
    opacity="0.6"
    fill-rule="evenodd"
    clip-rule="evenodd"
    d="M5 12H4V13V25H5H16H17V13V12H13V13H16V24H5V13V12ZM6 12H8H9V13H11V14H9V15H11V16H9V17V18H10V22H7V18H8V17H6V16H8V15H6V14H8V13H6V12ZM9 19H8V21H9V19Z"
    fill="#fff"
  />
  <path d="M11 2V3H10V2H11Z" fill="#fff" />
  <path d="M9 5V4H11V8H12V9H9V8H10V5H9Z" fill="#fff" />
  <path d="M8 9H4V8L6.5 5H4V4H8V5L5.68 8H8V9Z" fill="#fff" />
  <path
    fill-rule="evenodd"
    clip-rule="evenodd"
    d="M13.8 4V4.24C14.0067 4.08 14.2733 4 14.6 4H15.3C15.8867 4 16.3167 4.12667 16.59 4.38C16.8633 4.62667 17 5.03333 17 5.6V7.4C17 7.96 16.86 8.36667 16.58 8.62C16.3067 8.87333 15.88 9 15.3 9H14.01V11H13V4H13.8ZM14.65 5C14.43 5 14.2667 5.06 14.16 5.18C14.0533 5.29333 14 5.41667 14 5.55L14.01 8H15.25C15.4967 8 15.6833 7.94333 15.81 7.83C15.9367 7.71667 16 7.55667 16 7.35V5.65C16 5.44333 15.9367 5.28333 15.81 5.17C15.6833 5.05667 15.4967 5 15.25 5H14.65Z"
    fill="#fff"
  />
</svg>

<svg viewBox="0 0 21 28" xmlns="http://www.w3.org/2000/svg">
  <path
    d="M19.6 0H1.4A1.4 1.4 0 000 1.4v25.2A1.4 1.4 0 001.4 28h18.2a1.4 1.4 0 001.4-1.4V1.4A1.4 1.4 0 0019.6 0z"
  />
  <path
    fill="#fff"
    fill-rule="evenodd"
    d="M7 12H4v13h13V12h-3v1h2v11H5V13h2v-1zm1 0h3v1h2v1h-2v1h2v1h-2v1h2v1h-2v1h1v4H9v-4h1v-2H8v-1h2v-1H8v-1h2v-1H8v-1zm3 8h-1v2h1v-2z"
    clip-rule="evenodd"
    opacity=".6"
  />
  <path
    fill="#fff"
    d="M11 2v1h-1V2h1zM9 5V4h2v4h1v1H9V8h1V5H9zM8 9H4V8l2.5-3H4V4h4v1L5.68 8H8v1z"
  />
  <path
    fill="#fff"
    fill-rule="evenodd"
    d="M13.8 4v.24c.207-.16.473-.24.8-.24h.7c.587 0 1.017.127 1.29.38.273.247.41.653.41 1.22v1.8c0 .56-.14.967-.42 1.22-.273.253-.7.38-1.28.38h-1.29v2H13V4h.8zm.85 1c-.22 0-.383.06-.49.18a.53.53 0 00-.16.37L14.01 8h1.24c.247 0 .433-.057.56-.17.127-.113.19-.273.19-.48v-1.7c0-.207-.063-.367-.19-.48-.127-.113-.313-.17-.56-.17h-.6z"
    clip-rule="evenodd"
  />
</svg>
